src/platform/plugins/shared/home/public/assets/logos/oracle.svg

<?xml version="1.0" encoding="UTF-8" standalone="no"?>
<!-- Created with Inkscape (http://www.inkscape.org/) -->
<svg
   xmlns:svg="http://www.w3.org/2000/svg"
   xmlns="http://www.w3.org/2000/svg"
   version="1.0"
   width="662.84644"
   height="94.145668"
   id="svg115845">
  <defs
     id="defs115847">
    <clipPath
       id="clp82">
      <path
         d="M 1001.6,870.49 L 1036.3,870.49 L 1036.3,857.41 L 1001.6,857.41 L 1001.6,870.49 z "
         id="path1826" />
    </clipPath>
    <clipPath
       id="clp83">
      <path
         d="M 1001.6,870.49 L 1036.3,870.49 L 1036.3,857.41 L 1001.6,857.41 L 1001.6,870.49 z "
         id="path1835" />
    </clipPath>
    <clipPath
       id="clp84">
      <path
         d="M 1001.6,870.49 L 1036.3,870.49 L 1036.3,857.41 L 1001.6,857.41 L 1001.6,870.49 z "
         id="path1844" />
    </clipPath>
    <clipPath
       id="clp81">
      <path
         d="M 1000.9,934.34 L 1038.6,934.34 L 1038.6,922.24 L 1000.9,922.24 L 1000.9,934.34 z "
         id="path1800" />
    </clipPath>
    <clipPath
       id="clipPath116030">
      <path
         d="M 1001.6,870.49 L 1036.3,870.49 L 1036.3,857.41 L 1001.6,857.41 L 1001.6,870.49 z "
         id="path116032" />
    </clipPath>
    <clipPath
       id="clipPath116038">
      <path
         d="M 1001.6,870.49 L 1036.3,870.49 L 1036.3,857.41 L 1001.6,857.41 L 1001.6,870.49 z "
         id="path116040" />
    </clipPath>
    <clipPath
       id="clipPath116046">
      <path
         d="M 1001.6,870.49 L 1036.3,870.49 L 1036.3,857.41 L 1001.6,857.41 L 1001.6,870.49 z "
         id="path116048" />
    </clipPath>
  </defs>
  <g
     transform="translate(-702.6538,-712.5837)"
     id="layer1">
    <g
       id="g16337">
      <path
         d="M 980.65099,771.70039 L 1021.3029,771.70039 L 999.80762,737.1177 L 960.35637,799.64472 L 942.40142,799.64472 L 990.38729,724.53644 C 992.47368,721.50175 995.95082,719.66834 999.80762,719.66834 C 1003.5375,719.66834 1007.0147,721.43856 1009.0379,724.41 L 1057.2134,799.64472 L 1039.2584,799.64472 L 1030.7865,785.67256 L 989.62847,785.67256 L 980.65099,771.70039 z M 1167.1573,785.67256 L 1167.1573,720.42701 L 1151.9207,720.42701 L 1151.9207,792.05805 C 1151.9207,794.01795 1152.6795,795.9146 1154.1335,797.3687 C 1155.5874,798.82285 1157.5474,799.64472 1159.697,799.64472 L 1229.1786,799.64472 L 1238.1561,785.67256 L 1167.1573,785.67256 z M 915.08933,773.97641 C 929.88361,773.97641 941.89588,762.02739 941.89588,747.23331 C 941.89588,732.43928 929.88361,720.42701 915.08933,720.42701 L 848.43367,720.42701 L 848.43367,799.64472 L 863.66423,799.64472 L 863.66423,734.39918 L 914.07773,734.39918 C 921.15891,734.39918 926.84882,740.15238 926.84882,747.23331 C 926.84882,754.31423 921.15891,760.06749 914.07773,760.06749 L 871.12457,760.00424 L 916.60647,799.64472 L 938.7347,799.64472 L 908.13505,773.97641 L 915.08933,773.97641 z M 754.67521,799.64472 C 732.80632,799.64472 715.05966,781.94244 715.05966,760.06749 C 715.05966,738.19249 732.80632,720.42701 754.67521,720.42701 L 800.71978,720.42701 C 822.59473,720.42701 840.32876,738.19249 840.32876,760.06749 C 840.32876,781.94244 822.59473,799.64472 800.71978,799.64472 L 754.67521,799.64472 z M 799.69555,785.67256 C 813.86396,785.67256 825.33883,774.22928 825.33883,760.06749 C 825.33883,745.90564 813.86396,734.39918 799.69555,734.39918 L 755.69287,734.39918 C 741.53103,734.39918 730.04958,745.90564 730.04958,760.06749 C 730.04958,774.22928 741.53103,785.67256 755.69287,785.67256 L 799.69555,785.67256 z M 1089.0142,799.64472 C 1067.1392,799.64472 1049.3739,781.94244 1049.3739,760.06749 C 1049.3739,738.19249 1067.1392,720.42701 1089.0142,720.42701 L 1143.7016,720.42701 L 1134.7873,734.39918 L 1090.0258,734.39918 C 1075.8639,734.39918 1064.3577,745.90564 1064.3577,760.06749 C 1064.3577,774.22928 1075.8639,785.67256 1090.0258,785.67256 L 1144.9659,785.67256 L 1135.9885,799.64472 L 1089.0142,799.64472 z M 1275.3309,785.67256 C 1263.6346,785.67256 1253.7087,777.83296 1250.6739,767.02192 L 1315.7932,767.02192 L 1324.7707,753.04976 L 1250.6739,753.04976 C 1253.7087,742.30196 1263.6346,734.39918 1275.3309,734.39918 L 1320.0292,734.39918 L 1329.0699,720.42701 L 1274.3193,720.42701 C 1252.4443,720.42701 1234.679,738.19249 1234.679,760.06749 C 1234.679,781.94244 1252.4443,799.64472 1274.3193,799.64472 L 1321.2936,799.64472 L 1330.271,785.67256 L 1275.3309,785.67256"
         style="fill:#f80000;fill-rule:nonzero;stroke:none"
         id="path16197" />
      <path
         d="M 1337.2258,728.8356 C 1337.2258,724.97899 1340.3233,721.88111 1344.1801,721.88111 C 1348.1001,721.88111 1351.1976,724.97899 1351.1976,728.8356 C 1351.1976,732.75534 1348.1001,735.85328 1344.1801,735.85328 C 1340.3233,735.85328 1337.2258,732.75534 1337.2258,728.8356 z M 1344.1801,737.81317 C 1349.1112,737.81317 1353.0944,733.83013 1353.0944,728.89879 C 1353.0944,723.96745 1349.1112,719.98446 1344.1801,719.98446 C 1339.3117,719.98446 1335.329,723.96745 1335.329,728.89879 C 1335.329,733.83013 1339.3117,737.81317 1344.1801,737.81317 z M 1343.3581,723.58814 C 1344.7489,723.58814 1345.3181,723.65133 1345.9505,723.9042 C 1347.7205,724.47325 1347.91,726.05378 1347.91,726.68602 C 1347.91,726.81246 1347.91,727.12857 1347.7836,727.50788 C 1347.7205,727.88725 1347.4677,728.64592 1346.5825,729.21491 C 1346.4561,729.27815 1346.3929,729.34135 1346.1401,729.46778 L 1348.4161,733.57726 L 1346.2033,733.57726 L 1344.1801,729.7839 L 1342.7894,729.7839 L 1342.7894,733.57726 L 1340.8294,733.57726 L 1340.8294,723.58814 L 1343.3581,723.58814 z M 1344.0537,728.14012 C 1344.6857,728.07693 1345.3181,728.07693 1345.6973,727.50788 C 1345.8868,727.25501 1345.9505,727.00214 1345.9505,726.62277 C 1345.9505,726.11703 1345.6341,725.67447 1345.1917,725.42155 C 1344.7489,725.23192 1344.3065,725.23192 1343.3581,725.23192 L 1342.7894,725.23192 L 1342.7894,728.14012 L 1344.0537,728.14012"
         style="fill:#f80000;fill-rule:nonzero;stroke:none"
         id="path16199" />
    </g>
  </g>
</svg>

<svg xmlns="http://www.w3.org/2000/svg" width="662.846" height="94.146" version="1.0"><path d="M980.651 771.7h40.652l-21.495-34.582-39.452 62.527h-17.955l47.986-75.109c2.087-3.034 5.564-4.868 9.42-4.868 3.73 0 7.208 1.77 9.23 4.742l48.176 75.235h-17.955l-8.472-13.972h-41.158zm186.506 13.973v-65.246h-15.236v71.631c0 1.96.758 3.857 2.212 5.31 1.454 1.455 3.414 2.277 5.564 2.277h69.482l8.977-13.972zM915.09 773.976c14.795 0 26.807-11.949 26.807-26.743s-12.012-26.806-26.807-26.806h-66.655v79.218h15.23v-65.246h50.414c7.08 0 12.77 5.753 12.77 12.834s-5.69 12.834-12.77 12.834l-42.953-.063 45.481 39.64h22.129l-30.6-25.668zm-160.414 25.669c-21.869 0-39.615-17.703-39.615-39.578s17.746-39.64 39.615-39.64h46.045c21.875 0 39.609 17.765 39.609 39.64s-17.734 39.578-39.61 39.578zm45.02-13.972c14.169 0 25.644-11.444 25.644-25.606 0-14.161-11.475-25.668-25.643-25.668h-44.003c-14.162 0-25.643 11.507-25.643 25.668 0 14.162 11.481 25.606 25.643 25.606zm289.32 13.972c-21.876 0-39.641-17.703-39.641-39.578s17.765-39.64 39.64-39.64h54.688l-8.915 13.972h-44.761c-14.162 0-25.668 11.507-25.668 25.668 0 14.162 11.506 25.606 25.668 25.606h54.94l-8.977 13.972zm186.316-13.972c-11.696 0-21.622-7.84-24.657-18.651h65.12l8.977-13.972h-74.097c3.035-10.748 12.96-18.65 24.657-18.65h44.698l9.04-13.973h-54.75c-21.875 0-39.64 17.765-39.64 39.64s17.765 39.578 39.64 39.578h46.975l8.977-13.972zM1337.226 728.836a6.934 6.934 0 0 1 6.954-6.955c3.92 0 7.018 3.098 7.018 6.955 0 3.92-3.098 7.017-7.018 7.017-3.857 0-6.954-3.098-6.954-7.017m6.954 8.977a8.904 8.904 0 0 0 8.914-8.914 8.904 8.904 0 0 0-8.914-8.915c-4.868 0-8.851 3.983-8.851 8.915s3.983 8.914 8.851 8.914m-.822-14.225c1.39 0 1.96.063 2.592.316 1.77.57 1.96 2.15 1.96 2.782 0 .126 0 .443-.126.822-.064.38-.316 1.138-1.202 1.707-.126.063-.19.126-.442.253l2.276 4.11h-2.213l-2.023-3.794h-1.39v3.793h-1.96v-9.989zm.696 4.552c.632-.063 1.264-.063 1.643-.632.19-.253.254-.506.254-.885 0-.506-.317-.949-.76-1.201-.442-.19-.885-.19-1.833-.19h-.569v2.908z" style="fill:#f80000;fill-rule:nonzero;stroke:none" transform="translate(-702.654 -712.584)"/></svg>
